src/images/std-icons/std-search.svg

<svg xmlns="http://www.w3.org/2000/svg" width="512" height="512" viewBox="0 0 512 512">
  <title>search</title>
  <path fill="#000" fill-rule="nonzero" d="M420.48,390.186667 L332.8,302.72 C379.738428,240.002193 370.234282,151.674155 311.027845,100.377594 C251.821408,49.0810331 163.040214,52.254481 107.647348,107.647348 C52.254481,163.040214 49.0810331,251.821408 100.377594,311.027845 C151.674155,370.234282 240.002193,379.738428 302.72,332.8 L390.186667,420.48 C398.55194,428.845272 412.114727,428.845272 420.479999,420.479999 C428.845272,412.114727 428.845272,398.55194 420.48,390.186667 Z M213.333333,320 C154.42296,320 106.666667,272.243707 106.666667,213.333333 C106.666667,154.42296 154.42296,106.666667 213.333333,106.666667 C272.243707,106.666667 320,154.42296 320,213.333333 C320,241.623092 308.761937,268.754176 288.758057,288.758057 C268.754176,308.761937 241.623092,320 213.333333,320 Z"/>
</svg>

<svg xmlns="http://www.w3.org/2000/svg" viewBox="0 0 512 512">
  <title>
    search
  </title>
  <path d="M420.48 390.19l-87.68-87.47c46.94-62.72 37.43-151.05-21.77-202.34-59.2-51.3-147.99-48.13-203.38 7.27-55.4 55.39-58.57 144.17-7.27 203.38 51.3 59.2 139.62 68.7 202.34 21.77l87.47 87.68a21.42 21.42 0 0 0 30.29-30.3zM213.33 320c-58.9 0-106.66-47.76-106.66-106.67 0-58.9 47.75-106.66 106.66-106.66S320 154.42 320 213.33A106.67 106.67 0 0 1 213.33 320z"/>
</svg>
